X: 18
T:Marchioness of Douglass' Favourite. Car.18
M:6/8
L:1/8
Q:120
S:CarlisleMS,Anon.c1812.AGG's transcription
R:Jig
O:England
A:Carlisle
Z:vmp.Chris Partington
K:C
c/d/|ecA G2G|(G3 E2) c|GEc GEc|{cd}e3 d2e|!
ecA G2G|G3 E2a|gec BGB|c3 c2||!
f|e2g gag|gag g2f|e2f gaf|e3 d2f|!
e2g gag|c'2g g2f|edc B2c/d/|c3 c2|]
